X: 1388
T: Touch Me If You Dare
M:C|
L:1/8
N:"No. 2" "collected by J. O'Neill"
B:O'Neill's 1388
Z:"Transcribed by Bob Safranek, rjs@gsp.org"
K:Am
AB | cABG AGE^F  | GABc  dBGB  | cABG AGED    | EAA^G A2    :|
E2 | ABcd e2 e^f | ge^fd ecA^G | ABcd e2 e^d  | eaa^g a2 a2 |
     ABcd e^de^f | ge^fd ecAB  | cABG AGED    | EAA^G A2    |]


